img/i/carts.svg

<svg enable-background="new 0 0 512 512" viewBox="0 0 512 512" xmlns="http://www.w3.org/2000/svg"><path d="m454.081 296.474v-47.844h-99.491l-23.167 71.011z" fill="#ff9e24"/><path d="m454.081 296.474h-122.658l23.167 47.841h99.491z" fill="#ff8c00"/><path d="m103.639 248.633h250.949v95.681h-250.949z" fill="#ffb14d"/><path d="m454.081 154.391v-47.843h-99.491l-23.167 71.011z" fill="#ff9e24"/><path d="m354.59 202.233h99.491v-47.842h-122.658z" fill="#ff8c00"/><path d="m103.639 106.547h250.949v95.681h-250.949z" fill="#ffb14d"/><circle cx="118.038" cy="463.128" fill="#181818" r="37.288"/><circle cx="439.683" cy="463.128" fill="#181818" r="37.288"/><g fill="#11113f"><path d="m500.416 379.129h-431.53v-321.744c0-31.641-25.705-57.385-57.302-57.385-6.398 0-11.584 5.187-11.584 11.584s5.186 11.584 11.584 11.584c18.822 0 34.135 15.35 34.135 34.217v333.328c0 6.397 5.186 11.584 11.584 11.584h443.114c6.398 0 11.584-5.187 11.584-11.584-.001-6.397-5.187-11.584-11.585-11.584z"/><path d="m103.637 355.899h350.444c6.398 0 11.584-5.187 11.584-11.584v-95.685c0-6.397-5.186-11.584-11.584-11.584h-350.444c-6.398 0-11.584 5.187-11.584 11.584v95.685c0 6.398 5.186 11.584 11.584 11.584zm262.537-23.167v-24.676h76.324v24.676zm76.324-47.843h-76.324v-24.674h76.324zm-327.277-24.674h227.787v72.518h-227.787z"/><path d="m103.637 213.817h350.444c6.398 0 11.584-5.187 11.584-11.584v-95.685c0-6.397-5.186-11.584-11.584-11.584h-350.444c-6.398 0-11.584 5.187-11.584 11.584v95.685c0 6.397 5.186 11.584 11.584 11.584zm262.537-23.168v-24.674h76.324v24.674zm76.324-47.842h-76.324v-24.676h76.324zm-327.277-24.675h227.787v72.518h-227.787z"/><path d="m118.036 414.255c-26.948 0-48.872 21.924-48.872 48.872 0 26.947 21.923 48.873 48.872 48.873s48.872-21.924 48.872-48.872c-.001-26.947-21.924-48.873-48.872-48.873zm0 74.578c-14.174 0-25.704-11.532-25.704-25.704 0-14.173 11.532-25.704 25.704-25.704s25.704 11.532 25.704 25.704-11.53 25.704-25.704 25.704z"/><path d="m439.683 414.255c-26.948 0-48.872 21.924-48.872 48.872 0 26.947 21.923 48.873 48.872 48.873s48.872-21.924 48.872-48.872c0-26.947-21.925-48.873-48.872-48.873zm0 74.578c-14.174 0-25.704-11.532-25.704-25.704 0-14.173 11.532-25.704 25.704-25.704s25.704 11.532 25.704 25.704-11.53 25.704-25.704 25.704z"/></g></svg>

<?xml version="1.0" encoding="iso-8859-1"?>
<!-- Generator: Adobe Illustrator 19.0.0, SVG Export Plug-In . SVG Version: 6.00 Build 0)  -->
<svg version="1.1" id="Layer_1" xmlns="http://www.w3.org/2000/svg" xmlns:xlink="http://www.w3.org/1999/xlink" x="0px" y="0px"
	 viewBox="0 0 512 512" style="enable-background:new 0 0 512 512;" xml:space="preserve">
<polygon style="fill:#FF9E24;" points="454.081,296.474 454.081,248.63 354.59,248.63 331.423,319.641 "/>
<polygon style="fill:#FF8C00;" points="454.081,296.474 331.423,296.474 354.59,344.315 454.081,344.315 "/>
<rect x="103.639" y="248.633" style="fill:#FFB14D;" width="250.949" height="95.681"/>
<polygon style="fill:#FF9E24;" points="454.081,154.391 454.081,106.548 354.59,106.548 331.423,177.559 "/>
<polygon style="fill:#FF8C00;" points="354.59,202.233 454.081,202.233 454.081,154.391 331.423,154.391 "/>
<rect x="103.639" y="106.547" style="fill:#FFB14D;" width="250.949" height="95.681"/>
<g>
	<circle style="fill:#181818;" cx="118.038" cy="463.128" r="37.288"/>
	<circle style="fill:#181818;" cx="439.683" cy="463.128" r="37.288"/>
</g>
<g>
	<path style="fill:#11113F;" d="M500.416,379.129H68.886V57.385C68.886,25.744,43.181,0,11.584,0C5.186,0,0,5.187,0,11.584
		s5.186,11.584,11.584,11.584c18.822,0,34.135,15.35,34.135,34.217v333.328c0,6.397,5.186,11.584,11.584,11.584h443.114
		c6.398,0,11.584-5.187,11.584-11.584C512,384.316,506.814,379.129,500.416,379.129z"/>
	<path style="fill:#11113F;" d="M103.637,355.899h350.444c6.398,0,11.584-5.187,11.584-11.584V248.63
		c0-6.397-5.186-11.584-11.584-11.584H103.637c-6.398,0-11.584,5.187-11.584,11.584v95.685
		C92.053,350.713,97.239,355.899,103.637,355.899z M366.174,332.732v-24.676h76.324v24.676H366.174z M442.498,284.889h-76.324
		v-24.674h76.324V284.889z M115.221,260.215h227.787v72.518H115.221V260.215z"/>
	<path style="fill:#11113F;" d="M103.637,213.817h350.444c6.398,0,11.584-5.187,11.584-11.584v-95.685
		c0-6.397-5.186-11.584-11.584-11.584H103.637c-6.398,0-11.584,5.187-11.584,11.584v95.685
		C92.053,208.63,97.239,213.817,103.637,213.817z M366.174,190.649v-24.674h76.324v24.674H366.174z M442.498,142.807h-76.324
		v-24.676h76.324V142.807z M115.221,118.132h227.787v72.518H115.221V118.132z"/>
	<path style="fill:#11113F;" d="M118.036,414.255c-26.948,0-48.872,21.924-48.872,48.872c0,26.947,21.923,48.873,48.872,48.873
		s48.872-21.924,48.872-48.872C166.907,436.181,144.984,414.255,118.036,414.255z M118.036,488.833
		c-14.174,0-25.704-11.532-25.704-25.704c0-14.173,11.532-25.704,25.704-25.704s25.704,11.532,25.704,25.704
		C143.74,477.301,132.21,488.833,118.036,488.833z"/>
	<path style="fill:#11113F;" d="M439.683,414.255c-26.948,0-48.872,21.924-48.872,48.872c0,26.947,21.923,48.873,48.872,48.873
		s48.872-21.924,48.872-48.872C488.555,436.181,466.63,414.255,439.683,414.255z M439.683,488.833
		c-14.174,0-25.704-11.532-25.704-25.704c0-14.173,11.532-25.704,25.704-25.704s25.704,11.532,25.704,25.704
		C465.387,477.301,453.857,488.833,439.683,488.833z"/>
</g>
<g>
</g>
<g>
</g>
<g>
</g>
<g>
</g>
<g>
</g>
<g>
</g>
<g>
</g>
<g>
</g>
<g>
</g>
<g>
</g>
<g>
</g>
<g>
</g>
<g>
</g>
<g>
</g>
<g>
</g>
</svg>
